X:522
T:B522-  William and Margaret
S:(1st/2) many other of 18th century for Margaret's Chost, BMADD
Q:1/4=120
L:1/4
M:3/4
K:Ddorian
zz/A/ F3/4D/4|_Bz/A/ d/e/|^c2z/d/|e/A/G3/2A/|\
A3|zz/A/ A/_B/|c3/2c/ d/A/|_B2z/G/|\
g/e/^c3/2d/|e2z/A/|d/F/E3/2D/|D3|]

